X:1
T:Holy Comfort, 77.76
T:R. S. Genge, before 1907
T:Holy Comfort, 77.76
T:Public Domain
C:R. S. Genge, before 1907
Z:Public Domain
%%score ( 1 2 ) ( 3 4 )
L:1/8
M:4/4
K:Ab
V:1 treble 
V:2 treble 
V:3 bass 
V:4 bass 
V:1
 [CF]3 [CF] [FG]2 [FA]2 | [FB]2 [FG]2 [FA]4 | [CF]3 [DF] [DG]2 [DA]2 | [FB]2 [DG]2 [Cc]4 | %4
 [EA]3 [EA] [AB]2 [Ac]2 | [Ae]2 [GB]2 [Ac]2 [=EG]2 | [F=A]2 [FB]2 F2 z G x | [F=A]8 |] %8
V:2
 x8 | x8 | x8 | x8 | x8 | x8 | x4 c3 =E2 | x8 |] %8
V:3
 [F,A,]3 [F,A,] [F,B,]2 [F,C]2 | [F,D]2 [F,B,]2 [F,C]4 | A,3 A, [G,A,]2 [F,A,]2 | %3
 G,2 [F,G,]2 [=E,G,]4 | [G,C]3 [E,C] [E,D]2 [E,C]2 | [E,B,]2 [E,E]2 A,2 [C,C]2 | %6
 [F,C]2 [=D,F,]2 [C,G,]2 [C,C]2 x | [F,C]8 |] %8
V:4
 x8 | x8 | A,3 A, x4 | G,2 x6 | x8 | x4 A,2 x2 | x9 | x8 |] %8

